src/assets/svg/icons/checkbox-empty.svg

<svg width="24" height="24" viewBox="0 0 24 24" fill="none" xmlns="http://www.w3.org/2000/svg">
<path d="M9.20898 2.5H14.791C17.259 2.50005 18.9008 3.0297 19.9355 4.06445C20.9703 5.09921 21.5 6.74098 21.5 9.20898V14.791C21.5 17.259 20.9703 18.9008 19.9355 19.9355C18.9008 20.9703 17.259 21.5 14.791 21.5H9.20898C6.74098 21.5 5.09921 20.9703 4.06445 19.9355C3.0297 18.9008 2.50005 17.259 2.5 14.791V9.20898C2.50005 6.74098 3.0297 5.09921 4.06445 4.06445C5.09921 3.0297 6.74098 2.50005 9.20898 2.5ZM9.20898 2.89551C7.02968 2.89555 5.40359 3.27805 4.34082 4.34082C3.27805 5.40359 2.89555 7.02968 2.89551 9.20898V14.791C2.89554 16.9703 3.27805 18.5964 4.34082 19.6592C5.40359 20.7219 7.02968 21.1045 9.20898 21.1045H14.791C16.9703 21.1045 18.5964 20.7219 19.6592 19.6592C20.7219 18.5964 21.1045 16.9703 21.1045 14.791V9.20898C21.1045 7.02968 20.7219 5.40359 19.6592 4.34082C18.5964 3.27805 16.9703 2.89554 14.791 2.89551H9.20898Z" fill="#253017" stroke="black"/>
</svg>

<svg xmlns="http://www.w3.org/2000/svg" width="24" height="24" fill="none"><path fill="#253017" stroke="#000" d="M9.209 2.5h5.582c2.468 0 4.11.53 5.145 1.564C20.97 5.1 21.5 6.741 21.5 9.21v5.582c0 2.468-.53 4.11-1.564 5.145C18.9 20.97 17.259 21.5 14.79 21.5H9.209c-2.468 0-4.11-.53-5.145-1.564C3.03 18.9 2.5 17.259 2.5 14.79V9.209c0-2.468.53-4.11 1.564-5.145C5.1 3.03 6.741 2.5 9.21 2.5Zm0 .396c-2.18 0-3.805.382-4.868 1.445C3.278 5.404 2.896 7.03 2.896 9.209v5.582c0 2.18.382 3.805 1.445 4.868 1.063 1.063 2.689 1.446 4.868 1.446h5.582c2.18 0 3.805-.383 4.868-1.446 1.063-1.063 1.446-2.689 1.446-4.868V9.209c0-2.18-.383-3.805-1.446-4.868-1.063-1.063-2.689-1.445-4.868-1.445H9.209Z"/></svg>
